X:4
T:Schweizer L\"andler Eb 9- (5letras) cf. C
M:3/4
L:1/4
K:Ebmaj%%MIDI gchordon
B, |: "Eb"G>FE | "Bb7"E2D | c>BA | "Eb"A2G | e>dc | "Bb7"c2B | 
=A/2B/2 c/2B/2 _A/2D/2 |1 "Eb"EzB, :|2 "Eb"EzG |: "Bb7"F/2G/2Ac | "Eb"BG/2A/2B | "Bb7"AF/2G/2A | 
"Eb"GE/2F/2G | "Fm"F/2G/2Ac | "Eb/Bb"BG/2A/2B | "Bb7"(A/2G/2) .F/2(A/2 G/2).F/2 |1 "Eb"EzG :|2 "Eb"E>B, C/2D/2 || 
|: "Eb"E>B"_ ="G | "Bb7"F>Fd | A>AD | "Eb"B>BG | E>BG | "Fm"F>Fd | "Bb7"A>AD | "Eb"Ezz :| 

